icons/midnadark/apps/48/wikimedia-commons.svg

<?xml version="1.0" encoding="UTF-8" standalone="no"?>
<svg
   xmlns:osb="http://www.openswatchbook.org/uri/2009/osb"
   xmlns:dc="http://purl.org/dc/elements/1.1/"
   xmlns:cc="http://creativecommons.org/ns#"
   xmlns:rdf="http://www.w3.org/1999/02/22-rdf-syntax-ns#"
   xmlns:svg="http://www.w3.org/2000/svg"
   xmlns="http://www.w3.org/2000/svg"
   xmlns:xlink="http://www.w3.org/1999/xlink"
   xmlns:sodipodi="http://sodipodi.sourceforge.net/DTD/sodipodi-0.dtd"
   xmlns:inkscape="http://www.inkscape.org/namespaces/inkscape"
   id="svg2408"
   height="48"
   width="48"
   version="1.0"
   inkscape:version="0.91 r13725"
   sodipodi:docname="wikimedia-commons.svg">
  <sodipodi:namedview
     pagecolor="#ffffff"
     bordercolor="#666666"
     borderopacity="1"
     objecttolerance="10"
     gridtolerance="10"
     guidetolerance="10"
     inkscape:pageopacity="0"
     inkscape:pageshadow="2"
     inkscape:window-width="1366"
     inkscape:window-height="685"
     id="namedview33"
     showgrid="false"
     inkscape:zoom="4.9166667"
     inkscape:cx="-3.4520409"
     inkscape:cy="35.268831"
     inkscape:window-x="0"
     inkscape:window-y="0"
     inkscape:window-maximized="1"
     inkscape:current-layer="svg2408" />
  <defs
     id="defs2410">
    <linearGradient
       gradientTransform="scale(1.0058652,0.994169)"
       gradientUnits="userSpaceOnUse"
       id="ButtonShadow"
       y2="7.0165396"
       x2="45.447727"
       y1="92.539597"
       x1="45.447727">
      <stop
         offset="0"
         style="stop-color:#000000;stop-opacity:1"
         id="stop3750" />
      <stop
         offset="1"
         style="stop-color:#000000;stop-opacity:0.58823532"
         id="stop3752" />
    </linearGradient>
    <filter
       id="filter3174"
       color-interpolation-filters="sRGB">
      <feGaussianBlur
         stdDeviation="1.71"
         id="feGaussianBlur3176" />
    </filter>
    <linearGradient
       gradientUnits="userSpaceOnUse"
       y2="-26.047026"
       x2="-125.19291"
       y1="73.496605"
       x1="-123.9715"
       id="linearGradient4738-6-8-3"
       xlink:href="#linearGradient8467"
       gradientTransform="matrix(1.0345816,0,0,1,4.3816956,-7.2895463e-7)" />
    <linearGradient
       id="linearGradient4207"
       osb:paint="gradient">
      <stop
         style="stop-color:#3498db;stop-opacity:1;"
         offset="0"
         id="stop3371" />
      <stop
         style="stop-color:#3498db;stop-opacity:0;"
         offset="1"
         id="stop3373" />
    </linearGradient>
    <linearGradient
       id="linearGradient8467">
      <stop
         id="stop8469"
         style="stop-color:#d3d3d3;stop-opacity:1"
         offset="0" />
      <stop
         id="stop8471"
         style="stop-color:#fcf9f9;stop-opacity:1"
         offset="1" />
    </linearGradient>
    <clipPath
       id="clipPath-589729250">
      <g
         transform="translate(0,-1004.3622)"
         id="g17">
        <path
           style="fill:#1890d0"
           inkscape:connector-curvature="0"
           d="m -24,13 c 0,1.105 -0.672,2 -1.5,2 -0.828,0 -1.5,-0.895 -1.5,-2 0,-1.105 0.672,-2 1.5,-2 0.828,0 1.5,0.895 1.5,2 z"
           transform="matrix(15.333333,0,0,11.5,414.99999,878.8622)"
           id="path19" />
      </g>
    </clipPath>
  </defs>
  <metadata
     id="metadata2413">
    <rdf:RDF>
      <cc:Work
         rdf:about="">
        <dc:format>image/svg+xml</dc:format>
        <dc:type
           rdf:resource="http://purl.org/dc/dcmitype/StillImage" />
        <dc:title></dc:title>
      </cc:Work>
    </rdf:RDF>
  </metadata>
  <g
     transform="translate(0,-48)"
     style="display:none"
     id="layer2">
    <rect
       style="opacity:0.9;fill:url(#ButtonShadow);fill-opacity:1;fill-rule:nonzero;stroke:none;filter:url(#filter3174)"
       id="rect3745"
       y="7"
       x="5"
       ry="6"
       rx="6"
       height="85"
       width="86" />
  </g>
  <g
     id="g4338">
    <g
       id="g10733"
       transform="matrix(0.47780364,0,0,0.47780364,-76.049248,-55.019034)">
      <g
         id="g10038-3"
         transform="translate(55.951895,-3.5355355)">
        <g
           transform="translate(144.24978,3.5355355)"
           id="g9928-9-3">
          <g
             id="g9602-6-4-6"
             transform="translate(135.91204,142.57098)">
            <path
               id="rect4177-3-1-1"
               d="m -170.49274,-27.421096 87.545249,0 c 3.577037,0 6.45772,2.783453 6.457683,6.240925 l -9.38e-4,87.977829 c -3.7e-5,3.457472 -2.879708,6.240925 -6.456745,6.240925 l -87.545249,0 c -3.57703,0 -6.45675,-2.783453 -6.45675,-6.240925 l 0,-87.977829 c 0,-3.457472 2.87972,-6.240925 6.45675,-6.240925 z"
               style="opacity:1;fill:url(#linearGradient4738-6-8-3);fill-opacity:1.0;fill-rule:evenodd;stroke:none;stroke-width:8;stroke-linecap:round;stroke-linejoin:round;stroke-miterlimit:4;stroke-dasharray:none;stroke-dashoffset:0;stroke-opacity:1"
               inkscape:connector-curvature="0" />
          </g>
        </g>
      </g>
    </g>
  </g>
  <g
     id="g49"
     transform="matrix(1.0384014,0,0,1.0384014,-0.91545796,1.5421623)">
    <g
       clip-path="url(#clipPath-589729250)"
       id="g51">
      <!-- color: #eeeeee -->
      <g
         id="g53">
        <path
           style="fill:#000000;fill-opacity:0.74871796;fill-rule:nonzero;stroke:none"
           d="M 23.039062 7 C 23.034909 7 23.01832 7.0410389 23.005859 7.0898438 C 22.958093 7.276756 22.755741 7.9737289 22.59375 8.4804688 C 22.025744 10.273788 21.380482 11.895509 20.763672 13.076172 C 20.389847 13.778131 20.096679 14.236388 19.703125 14.710938 C 19.50479 14.938347 19.464573 15.002494 19.419922 15.091797 C 19.350349 15.229904 19.389038 15.292252 19.546875 15.271484 C 19.689136 15.255908 20.040842 15.13752 20.896484 14.8125 C 21.647249 14.53317 21.757812 14.493695 21.757812 14.517578 C 21.757812 14.558076 21.922911 15.157356 22.003906 15.384766 C 22.580219 17.141741 23.504779 18.391487 24.900391 19.328125 C 25.497471 19.725833 26.064668 20.013214 27.126953 20.447266 C 28.684555 21.083806 28.981492 21.221139 29.472656 21.525391 C 29.687605 21.66246 29.966797 21.870648 29.966797 21.894531 C 29.966797 21.906992 29.785756 22.097056 29.5625 22.320312 L 29.152344 22.730469 L 28.697266 22.273438 C 28.405475 21.984762 28.225351 21.817865 28.212891 21.826172 C 28.189007 21.830325 27.901918 22.851615 27.269531 25.228516 C 27.265378 25.239938 27.269086 25.257812 27.292969 25.257812 C 27.322044 25.257812 30.480858 24.409169 30.6875 24.34375 C 30.698922 24.336481 30.712891 24.328867 30.712891 24.316406 C 30.712891 24.303945 30.512765 24.092843 30.265625 23.845703 C 30.013293 23.598564 29.814453 23.38306 29.814453 23.378906 C 29.814453 23.349831 30.618695 22.548828 30.642578 22.548828 C 30.6675 22.548828 30.87759 22.79484 31.080078 23.058594 C 32.086289 24.35348 32.724481 25.918242 32.890625 27.537109 C 32.938391 27.979468 32.937946 28.036367 32.914062 28.048828 C 32.881872 28.076865 31.774674 28.068805 31.753906 28.044922 C 31.733138 28.032461 31.732422 27.857362 31.732422 27.382812 C 31.732422 26.75458 31.73361 26.741693 31.697266 26.75 C 31.648461 26.765576 28.626953 28.502917 28.626953 28.519531 C 28.626953 28.527838 28.641341 28.541979 28.662109 28.558594 C 28.754527 28.615706 31.704336 30.304688 31.716797 30.304688 C 31.725104 30.304688 31.732422 30.015117 31.732422 29.646484 L 31.736328 28.994141 L 32.925781 28.994141 L 32.925781 29.134766 C 32.909167 29.45044 32.828078 30.039099 32.730469 30.464844 C 32.455292 31.737924 31.896731 32.940856 31.105469 33.966797 C 30.959054 34.153709 30.690394 34.477279 30.658203 34.498047 C 30.637435 34.513623 29.814453 33.698206 29.814453 33.666016 C 29.814453 33.661862 30.018238 33.446606 30.269531 33.195312 C 30.557168 32.915983 30.719492 32.745377 30.707031 32.724609 C 30.677956 32.699688 27.292005 31.788073 27.275391 31.804688 C 27.263968 31.817148 28.177289 35.21556 28.201172 35.236328 C 28.213633 35.256058 28.389553 35.082312 28.669922 34.798828 C 28.921215 34.55065 29.131823 34.34375 29.148438 34.34375 C 29.188935 34.34375 29.989271 35.151651 29.972656 35.179688 C 29.960195 35.207724 29.627553 35.492059 29.404297 35.658203 C 28.393932 36.432851 27.203064 36.983303 25.941406 37.263672 C 25.523969 37.352974 24.927546 37.438216 24.619141 37.458984 L 24.464844 37.462891 L 24.464844 36.271484 L 25.123047 36.267578 C 25.561252 36.267578 25.775391 36.258555 25.775391 36.246094 C 25.775391 36.208711 24.018815 33.154297 23.998047 33.154297 C 23.977279 33.154297 22.222656 36.213903 22.222656 36.246094 C 22.222656 36.254401 22.432641 36.263425 22.875 36.267578 L 23.537109 36.271484 L 23.537109 37.462891 L 23.382812 37.458984 C 23.078561 37.438216 22.482138 37.352974 22.060547 37.263672 C 20.798889 36.983303 19.611383 36.432851 18.59375 35.658203 C 18.374647 35.492059 18.037604 35.207724 18.029297 35.179688 C 18.016836 35.150612 18.813018 34.34375 18.853516 34.34375 C 18.87013 34.34375 19.084892 34.547535 19.332031 34.798828 C 19.615515 35.086465 19.78832 35.257096 19.800781 35.236328 C 19.83401 35.211406 20.74293 31.817148 20.730469 31.804688 C 20.709701 31.79638 17.322959 32.703841 17.294922 32.724609 C 17.286615 32.740185 17.448938 32.914944 17.732422 33.195312 C 17.983715 33.446606 18.191406 33.661862 18.191406 33.666016 C 18.191406 33.698206 17.367633 34.514661 17.34375 34.498047 C 17.310521 34.473125 17.042899 34.153709 16.896484 33.966797 C 16.11353 32.940856 15.551062 31.742077 15.267578 30.464844 C 15.174122 30.039099 15.092539 29.459785 15.080078 29.134766 L 15.076172 28.994141 L 16.259766 28.994141 L 16.265625 29.646484 C 16.272894 30.016155 16.280755 30.304688 16.289062 30.304688 C 16.292178 30.304688 19.240034 28.615706 19.341797 28.558594 C 19.349066 28.541979 19.371094 28.523685 19.371094 28.519531 C 19.371094 28.50707 16.358141 26.773883 16.296875 26.75 C 16.272992 26.741693 16.271484 26.75458 16.271484 27.382812 C 16.271484 27.861516 16.260508 28.032461 16.248047 28.044922 C 16.228317 28.072959 15.120328 28.072711 15.083984 28.048828 C 15.063216 28.036367 15.062771 27.979468 15.107422 27.537109 C 15.27772 25.926549 15.915664 24.352442 16.921875 23.058594 C 17.121248 22.79484 17.335492 22.548828 17.359375 22.548828 C 17.380143 22.548828 18.1875 23.355023 18.1875 23.378906 C 18.1875 23.387213 17.983468 23.598564 17.736328 23.845703 C 17.48815 24.092843 17.285156 24.303945 17.285156 24.316406 C 17.285156 24.32056 17.301745 24.331289 17.318359 24.34375 C 17.521886 24.409169 20.685101 25.257812 20.708984 25.257812 C 20.732868 25.257812 20.744635 25.249284 20.736328 25.228516 C 20.091481 22.855768 19.813737 21.834479 19.792969 21.826172 C 19.776354 21.822018 19.596231 21.989954 19.308594 22.273438 L 18.855469 22.730469 L 17.199219 21.076172 C 16.290618 20.167571 15.531992 19.419922 15.519531 19.419922 C 15.479034 19.419922 14.817947 20.094433 14.5625 20.394531 C 12.579153 22.719512 11.536862 25.531234 11.541016 28.548828 C 11.541016 31.510349 12.607414 34.389816 14.509766 36.617188 C 16.818132 39.306647 20.062567 40.8724 23.603516 40.998047 L 23.595703 40.994141 C 24.569724 41.026331 25.662946 40.925392 26.632812 40.71875 C 28.450015 40.325196 30.138133 39.534943 31.623047 38.390625 C 34.255394 36.36055 35.983646 33.31334 36.373047 30.019531 C 36.814367 26.230405 35.549847 22.508017 32.892578 19.798828 C 32.455411 19.345047 32.024344 18.991728 31.484375 18.638672 C 30.831221 18.212927 30.080064 17.839042 28.916016 17.376953 C 27.422794 16.780911 26.83662 16.468195 26.349609 16.001953 C 25.862599 15.539865 25.501342 14.890601 25.265625 14.054688 C 25.204359 13.831431 25.205395 13.835195 25.347656 13.847656 C 25.50134 13.864271 25.804757 13.929463 25.951172 13.982422 C 26.319804 14.112222 26.515144 14.238542 26.900391 14.611328 C 27.143377 14.842892 27.224633 14.897425 27.273438 14.865234 C 27.435428 14.759317 26.786164 13.4266 25.326172 10.871094 C 24.61279 9.6177433 23.067099 7 23.039062 7 z M 24.009766 24.376953 C 23.6889 24.376953 23.542899 24.380414 23.396484 24.404297 C 21.972836 24.6234 20.771873 25.531829 20.191406 26.833984 C 20.033569 27.187041 19.931816 27.544959 19.863281 27.970703 C 19.81863 28.25834 19.824242 28.865918 19.873047 29.166016 C 20.015308 30.049695 20.395156 30.81708 21.007812 31.445312 C 21.368138 31.818099 21.713149 32.065559 22.167969 32.292969 C 22.663286 32.531801 23.097588 32.653578 23.738281 32.714844 L 23.742188 32.720703 C 23.778532 32.724857 23.941525 32.724857 24.103516 32.720703 C 24.741094 32.712396 25.279651 32.582312 25.847656 32.298828 C 26.301438 32.075572 26.642295 31.820595 27.007812 31.455078 C 27.340101 31.106175 27.562642 30.785862 27.773438 30.347656 C 27.955158 29.969678 28.074044 29.595914 28.142578 29.166016 C 28.191383 28.865918 28.195042 28.25834 28.150391 27.970703 C 28.08601 27.544959 27.980103 27.187041 27.822266 26.833984 C 27.241799 25.531829 26.040836 24.6234 24.617188 24.404297 C 24.470773 24.380414 24.326478 24.376953 24.009766 24.376953 z "
           transform="matrix(0.96301873,0,0,0.96301873,0.88160316,-1.4851312)"
           id="path55" />
      </g>
    </g>
  </g>
</svg>

<svg xmlns="http://www.w3.org/2000/svg" viewBox="0 0 48 48"><defs><clipPath id="1"><path d="m-24 13c0 1.105-.672 2-1.5 2-.828 0-1.5-.895-1.5-2 0-1.105.672-2 1.5-2 .828 0 1.5.895 1.5 2" transform="matrix(15.33333 0 0 11.5 415-125.5)" fill="#1890d0"/></clipPath><filter color-interpolation-filters="sRGB"><feGaussianBlur stdDeviation="1.71"/></filter><linearGradient gradientUnits="userSpaceOnUse" y2="-26.05" x2="-125.19" y1="73.5" x1="-123.97" id="0" gradientTransform="matrix(1.03458 0 0 1 4.382 0)"><stop stop-color="#d3d3d3"/><stop offset="1" stop-color="#fcf9f9"/></linearGradient><linearGradient gradientTransform="scale(1.0059.99417)" gradientUnits="userSpaceOnUse" y2="7.02" x2="0" y1="92.54"><stop/><stop offset="1" stop-opacity=".588"/></linearGradient></defs><path d="m-170.49-27.421h87.55c3.577 0 6.458 2.783 6.458 6.241v87.978c0 3.457-2.88 6.241-6.457 6.241h-87.55c-3.577 0-6.457-2.783-6.457-6.241v-87.978c0-3.457 2.88-6.241 6.457-6.241" fill="url(#0)" fill-rule="evenodd" transform="matrix(.4778 0 0 .4778 84.55 13.1)"/><g transform="matrix(1.0384 0 0 1.0384-.915 1.542)"><g clip-path="url(#1)"><path d="m23.04 7c-.004 0-.021.041-.033.09-.048.187-.25.884-.412 1.391-.568 1.793-1.213 3.415-1.83 4.596-.374.702-.667 1.16-1.061 1.635-.198.227-.239.292-.283.381-.07.138-.031.2.127.18.142-.016.494-.134 1.35-.459.751-.279.861-.319.861-.295 0 .04.165.64.246.867.576 1.757 1.501 3.01 2.896 3.943.597.398 1.164.685 2.227 1.119 1.558.637 1.855.774 2.346 1.078.215.137.494.345.494.369 0 .012-.181.203-.404.426l-.41.41-.455-.457c-.292-.289-.472-.456-.484-.447-.024.004-.311 1.025-.943 3.402-.004.011 0 .029.023.029.029 0 3.188-.849 3.395-.914.011-.007.025-.015.025-.027 0-.012-.2-.224-.447-.471-.252-.247-.451-.463-.451-.467 0-.029.804-.83.828-.83.025 0 .235.246.438.51 1.01 1.295 1.644 2.86 1.811 4.479.048.442.047.499.023.512-.032.028-1.139.02-1.16-.004-.021-.012-.021-.188-.021-.662 0-.628.0001-.641-.035-.633-.049.016-3.07 1.753-3.07 1.77 0 .008.014.022.035.039.092.057 3.042 1.746 3.055 1.746.008 0 .016-.29.016-.658l.004-.652h1.189v.141c-.017.316-.098.904-.195 1.33-.275 1.273-.834 2.476-1.625 3.502-.146.187-.415.51-.447.531-.021.016-.844-.8-.844-.832 0-.004.204-.219.455-.471.288-.279.45-.45.438-.471-.029-.025-3.415-.937-3.432-.92-.011.012.902 3.411.926 3.432.012.02.188-.154.469-.438.251-.248.462-.455.479-.455.04 0 .841.808.824.836-.012.028-.345.312-.568.479-1.01.775-2.201 1.325-3.463 1.605-.417.089-1.014.175-1.322.195l-.154.004v-1.191l.658-.004c.438 0 .652-.009.652-.021 0-.037-1.757-3.092-1.777-3.092-.021 0-1.775 3.06-1.775 3.092 0 .008.21.017.652.021l.662.004v1.191l-.154-.004c-.304-.021-.901-.106-1.322-.195-1.262-.28-2.449-.831-3.467-1.605-.219-.166-.556-.45-.564-.479-.012-.029.784-.836.824-.836.017 0 .231.204.479.455.283.288.456.458.469.438.033-.025.942-3.419.93-3.432-.021-.008-3.408.899-3.436.92-.008.016.154.19.438.471.251.251.459.467.459.471 0 .032-.824.849-.848.832-.033-.025-.301-.344-.447-.531-.783-1.026-1.345-2.225-1.629-3.502-.093-.426-.175-1.01-.188-1.33l-.004-.141h1.184l.006.652c.007.37.015.658.023.658.003 0 2.951-1.689 3.053-1.746.007-.017.029-.035.029-.039 0-.012-3.01-1.746-3.074-1.77-.024-.008-.025.005-.025.633 0 .479-.011.65-.023.662-.02.028-1.128.028-1.164.004-.021-.012-.021-.069.023-.512.17-1.611.808-3.185 1.814-4.479.199-.264.414-.51.438-.51.021 0 .828.806.828.83 0 .008-.204.22-.451.467-.248.247-.451.458-.451.471 0 .004.017.015.033.027.204.065 3.367.914 3.391.914.024 0 .036-.009.027-.029-.645-2.373-.923-3.394-.943-3.402-.017-.004-.197.164-.484.447l-.453.457-1.656-1.654c-.909-.909-1.667-1.656-1.68-1.656-.04 0-.702.675-.957.975-1.983 2.325-3.03 5.137-3.02 8.154 0 2.962 1.066 5.841 2.969 8.07 2.308 2.689 5.553 4.255 9.09 4.381l-.008-.004c.974.032 2.067-.069 3.037-.275 1.817-.394 3.505-1.184 4.99-2.328 2.632-2.03 4.361-5.077 4.75-8.371.441-3.789-.823-7.512-3.48-10.221-.437-.454-.868-.807-1.408-1.16-.653-.426-1.404-.8-2.568-1.262-1.493-.596-2.079-.909-2.566-1.375-.487-.462-.848-1.111-1.084-1.947-.061-.223-.06-.219.082-.207.154.017.457.082.604.135.369.13.564.256.949.629.243.232.324.286.373.254.162-.106-.487-1.439-1.947-3.994-.713-1.253-2.259-3.871-2.287-3.871m.971 17.377c-.321 0-.467.003-.613.027-1.424.219-2.625 1.128-3.205 2.43-.158.353-.26.711-.328 1.137-.045.288-.039.895.001 1.195.142.884.522 1.651 1.135 2.279.36.373.705.62 1.16.848.495.239.93.361 1.57.422l.004.006c.036.004.199.004.361 0 .638-.008 1.176-.138 1.744-.422.454-.223.795-.478 1.16-.844.332-.349.555-.669.766-1.107.182-.378.301-.752.369-1.182.049-.3.052-.908.008-1.195-.064-.426-.17-.784-.328-1.137-.58-1.302-1.781-2.211-3.205-2.43-.146-.024-.291-.027-.607-.027" transform="matrix(.96302 0 0 .96302.882-1.485)" fill-opacity=".749"/></g></g></svg>
